X: 79
T:Running the Goat #2
R:Polka
Z:Added by alf.warnock@rogers.com
M:2/4
L:1/8
K:C
CE GE|ED ED|CE GE|ED D2|
CE GE|ED EG|A>B AG|ED C2:|
|:Cc Bc|E2 ED|Cc Bc|d2d2|
Cc Bc|E2 EG|A>B AG|ED C2:|

